src/dsmComponents/Icons/close-clear-24px.svg

<svg width="24" height="24" xmlns="http://www.w3.org/2000/svg" xmlns:xlink="http://www.w3.org/1999/xlink"><defs><path d="M23.55.45c-.6-.6-1.5-.6-2.1 0L12 9.9 2.55.45c-.6-.6-1.5-.6-2.1 0-.6.6-.6 1.5 0 2.1L9.9 12 .45 21.45c-.6.6-.6 1.5 0 2.1.3.3.6.45 1.05.45.45 0 .75-.15 1.05-.45L12 14.1l9.45 9.45c.3.3.75.45 1.05.45.3 0 .75-.15 1.05-.45.6-.6.6-1.5 0-2.1L14.1 12l9.45-9.45c.6-.6.6-1.5 0-2.1z" id="close-clear-24px_svg__a"/></defs><use fill="#737373" xlink:href="#close-clear-24px_svg__a" fill-rule="evenodd"/></svg>

<?xml version="1.0" encoding="UTF-8"?>
<svg width="24px" height="24px" viewBox="0 0 24 24" version="1.1" xmlns="http://www.w3.org/2000/svg" xmlns:xlink="http://www.w3.org/1999/xlink">
    <!-- Generator: Sketch 59.1 (86144) - https://sketch.com -->
    <title>close-clear-24px</title>
    <desc>Created with Sketch.</desc>
    <defs>
        <path d="M23.55,0.45 C22.95,-0.15 22.05,-0.15 21.45,0.45 L12,9.9 L2.55,0.45 C1.95,-0.15 1.05,-0.15 0.45,0.45 C-0.15,1.05 -0.15,1.95 0.45,2.55 L9.9,12 L0.45,21.45 C-0.15,22.05 -0.15,22.95 0.45,23.55 C0.75,23.85 1.05,24 1.5,24 C1.95,24 2.25,23.85 2.55,23.55 L12,14.1 L21.45,23.55 C21.75,23.85 22.2,24 22.5,24 C22.8,24 23.25,23.85 23.55,23.55 C24.15,22.95 24.15,22.05 23.55,21.45 L14.1,12 L23.55,2.55 C24.15,1.95 24.15,1.05 23.55,0.45 Z" id="path-1"></path>
    </defs>
    <g id="Final" stroke="none" stroke-width="1" fill="none" fill-rule="evenodd">
        <g id="All-Nucleo-Icons" transform="translate(-608.000000, -1948.000000)">
            <g id="Solo/Nucleo/24px/close-clear" transform="translate(608.000000, 1948.000000)">
                <g id="e-remove">
                    <g id="Colour/Default-Colour">
                        <mask id="mask-2" fill="white">
                            <use xlink:href="#path-1"></use>
                        </mask>
                        <use id="Mask" fill="#000000" fill-rule="nonzero" xlink:href="#path-1"></use>
                        <g id="colour/neutral/chia" mask="url(#mask-2)" fill="#737373">
                            <g transform="translate(-20.000000, -20.000000)" id="Colour">
                                <rect x="0" y="0" width="64" height="64"></rect>
                            </g>
                        </g>
                    </g>
                </g>
            </g>
        </g>
    </g>
</svg>
